X: 28
T: Money in Both Pockets
I: Money in Both Pockets	J-9	D	jig
%%musicspace	2pt
M: 6/8
R: jig
K: D
A| "D"d2F "A"FEF| "D"DFA AFD| d2F "A"FEF| "D"D2f fef|
   "D"d2F "A"FEF| "D"DFA AFD| "Em"EFE EFG| "A"BBB B2:|
|:A| "D"dfa afd| "A"cea ecA| "D"dfa afd| "G"g3 fga|
   "G"bag "D"agf| "A"ede "D"fdB| ABA AFA| "G"BBB B2 :|
%%text Roaring Jelly  J-9

